!!!COM: Corelli, Arcangelo
!!!OTL: 
!!!ONM: Opus 3, No. 2
!!!OMV: 2
!!!CDT: 1653/2/17/-1713/1/8/
!!!OCY: Italia
**kern	**kern	**kern	**kern
*clefC	*clefC	*clefG	*clefG
*k[f#c#]	*k[f#c#]	*k[f#c#]	*k[f#c#]
*D:	*D:	*D:	*D:
*M4/4	*M4/4	*M4/4	*M4/4
=1	=1	=1	=1
1r	1r	1r	2dd
.	.	.	2ee
=2	=2	=2	=2
1r	1r	1r	4.ff#
.	.	.	8aa
.	.	.	8gg
.	.	.	8ff#
.	.	.	4ee
=3	=3	=3	=3
1r	1r	2dd	8dd
.	.	.	8d
.	.	.	8f#
.	.	.	8d
.	.	2cc#	8a
.	.	.	8a
.	.	.	8cc#
.	.	.	8a
=4	=4	=4	=4
1r	1r	2b	4.dd
.	.	.	16ee
.	.	.	16dd
.	.	4a	8cc#
.	.	.	8a
.	.	[4aa	8r
.	.	.	8ff#
=5	=5	=5	=5
2r	2r	4aa]	8b
.	.	.	8cc#
.	.	4.gg	8dd
.	.	.	8ee
2D	2D	.	4.a
.	.	16aa	.
.	.	16gg	.
.	.	[4ff#	.
.	.	.	8d
=6	=6	=6	=6
2E	2E	8ff#]	4.g
.	.	8b	.
.	.	4.ee	.
.	.	.	16f#
.	.	.	16g
4.F#	4.F#	.	4.a
.	.	8a	.
.	.	[4dd	.
8A	8A	.	8f#
=7	=7	=7	=7
8G	8G	4dd]	8b
8F#	8F#	.	8a
4E	4E	4cc#	4g
8D	8D	8dd	4f#
8D	8D	8ff#	.
8F#	8F#	8aa	4dd
8D	8D	8ff#	.
=8	=8	=8	=8
8A	8A	8ee	2cc#
8A	8A	8aa	.
8c#	8c#	8ee	.
8A	8A	8cc#	.
2d	2d	4f#	2b
.	.	4g#	.
=9	=9	=9	=9
4c#	4c#	2a	8r
.	.	.	8a
4A	4A	.	8cc#
.	.	.	8a
4F#	4F#	4r	8dd
.	.	.	8dd
4D	4D	[4dd	8ff#
.	.	.	8dd
=10	=10	=10	=10
4E	4E	4dd]	4.gg
4AA	4AA	4cc#	.
.	.	.	16aa
.	.	.	16gg
2d	2d	8r	4ff#
.	.	8dd	.
.	.	8b	[4bb
.	.	8dd	.
=11	=11	=11	=11
2e	2e	8g	4bb]
.	.	8ee	.
.	.	8cc#	2ccc#
.	.	8ee	.
4.f#	4.f#	8a	.
.	.	8ff#	.
.	.	8dd	[4ddd
8d	8d	8bb	.
=12	=12	=12	=12
4e	4e	8gg#	8ddd]
.	.	8ee	8ccc#
8r	8r	2aa	8ccc#
8c#	8c#	.	16ddd
.	.	.	16ccc#
8d	8d	.	2bb
8B	8B	.	.
8e	8e	4gg#	.
8E	8E	.	.
=13	=13	=13	=13
2AA	2AA	8aa	8r
.	.	8cc#	8a
.	.	4.ff#	8f#
.	.	.	8a
2BB	2BB	.	8d
.	.	8dd	8b
.	.	[4gg	8g
.	.	.	8b
=14	=14	=14	=14
4.C#	4.C#	8gg]	8e
.	.	8ee	8cc#
.	.	4.aa	8a
8AA	8AA	.	8cc#
4D	4D	.	8f#
.	.	8ff#	8dd
4GG	4GG	[4gg	8b
.	.	.	8ee
=15	=15	=15	=15
4AA	4AA	8gg]	8cc#
.	.	16aa	8a
.	.	16gg	.
8r	8r	8ff#	2dd
8B	8B	16gg	.
.	.	16ff#	.
8G	8G	2ee	.
8E	8E	.	.
8A	8A	.	[4cc#
8G	8G	.	.
=16	=16	=16	=16
8F#	8F#	2dd	8cc#]
8D	8D	.	8f#
8G	8G	.	2b
8F#	8F#	.	.
8E	8E	2cc#	.
8C#	8C#	.	.
8F#	8F#	.	4a#
8FF#	8FF#	.	.
=17	=17	=17	=17
4BB	4BB	4b	8r
.	.	.	8b
4B	4B	2.r	8dd
.	.	.	8b
2A	2A	.	8ff#
.	.	.	8ff#
.	.	.	8aa
.	.	.	8ff#
=18	=18	=18	=18
2G	2G	8r	2bb
.	.	8b	.
.	.	8dd	.
.	.	8b	.
4.F#	4.F#	8ff#	8aa
.	.	8ff#	8dd
.	.	8aa	8ff#
8F#	8F#	8ff#	8dd
=19	=19	=19	=19
8E	8E	2bb	2gg
8e	8e	.	.
8B	8B	.	.
8c#	8c#	.	.
8d	8d	4.aa	8ff#
8A	8A	.	16aa
.	.	.	16gg
8d	8d	.	8ff#
8F#	8F#	8aa	8aa
=20	=20	=20	=20
4G	4G	8gg	8b
.	.	16aa	8cc#
.	.	16gg	.
4D	4D	8ff#	2dd
.	.	16gg	.
.	.	16ff#	.
4.A	4.A	8ee	.
.	.	8a	.
.	.	[4aa	4cc#
8A	8A	.	.
=21	=21	=21	=21
4.B	4.B	4aa]	8dd#
.	.	.	8b
.	.	8gg	4.bb
8B	8B	8ff#	.
4.c	4.c	4ee	.
.	.	.	8ee
.	.	8ff#	[4aa
8A	8A	8ee	.
=22	=22	=22	=22
4B	4B	8dd#	4aa]
.	.	8b	.
8r	8r	8r	4gg
8G	8G	8bb	.
8A	8A	4aa	8cc#
8B	8B	.	8dd#
8c	8c	4gg	[4ee
8G	8G	.	.
=23	=23	=23	=23
8A	8A	2ff#	4ee]
8F#	8F#	.	.
8B	8B	.	4dd#
8BB	8BB	.	.
4E	4E	8ee	4ee
.	.	8e	.
[4e	[4e	8g#	4r
.	.	8e	.
=24	=24	=24	=24
4e]	4e]	8f#	2r
.	.	8f#	.
2d	2d	8b	.
.	.	8f#	.
.	.	8g#	8r
.	.	8e	8a
4c#	4c#	[4a	8cc#
.	.	.	8a
=25	=25	=25	=25
2B	2B	4a]	8dd
.	.	.	8ff#
.	.	4g#	8b
.	.	.	8dd
8A	8A	4.a	8cc#
8AA	8AA	.	8a
8C#	8C#	.	[4aa
8AA	8AA	8cc#	.
=26	=26	=26	=26
8BB	8BB	8dd	4aa]
8BB	8BB	8dd	.
8C#	8C#	8ee	2gg
8C#	8C#	8ee	.
8D	8D	4.a	.
8E	8E	.	.
8F#	8F#	.	[4ff#
8D	8D	8aa	.
=27	=27	=27	=27
4.G	4.G	4.bb	8ff#]
.	.	.	16gg
.	.	.	16ff#
.	.	.	4.ee
8G	8G	16aa	.
.	.	16gg	.
4F#	4F#	4.aa	.
.	.	.	8a
4B	4B	.	[4dd
.	.	8dd	.
=28	=28	=28	=28
4E	4E	4.gg	8dd]
.	.	.	16ee
.	.	.	16dd
4A	4A	.	8cc#
.	.	16aa	16b
.	.	16gg	16cc#
2D	2D	8ff#	8dd
.	.	8d	8f#
.	.	8f#	[4b
.	.	8d	.
=29	=29	=29	=29
2C#	2C#	8e	8b]
.	.	8a	8e
.	.	8cc#	4.a
.	.	8a	.
2BB	2BB	8dd	.
.	.	8ff#	8d
.	.	8bb	[4g
.	.	8b	.
=30	=30	=30	=30
1AA	1AA	8cc#	4g]
.	.	8a	.
.	.	8dd	4f#
.	.	8d	.
.	.	4.d	2e
.	.	8c#	.
=31	=31	=31	=31
1DD	1DD	1d	1f#
==	==	==	==
*-	*-	*-	*-
!!!RWG: This file only contains pitch and duration data.
!!!RWG: Transposing instruments are not transposed.
!!!RWG: Durations of rests and tied notes may be interpreted.
!!!RWG: Key is interpreted using the Humdrum key tool.
!!!SCA: 
!!!YOR: Chrysander Edition
!!!AGN: chamber
!!!AFT: stage1
!!!ENC: F. Bennion
!!!END: 1997/04/15
!!!AST: baroque
!!!YEC: Copyright 1994, Center for Computer Assisted Research in the Humanities
!!!YEM: Rights to all derivative electronic formats reserved.
!!!YEM: Refer to licensing agreement for further details.
!!!YEN: United States of America
!!!EED: W.B. Hewlett
!!!KEY: 2347000021
!!!EMD: Converted from MuseData to Humdrum Aug 9, 1999, by Bret Aarden using muse2kern.
!!!VTS: 3798323869
